X:114
T:114 Sweet Robin
C:Welch MS
I:abc2nwc
M:9/8
L:1/8
K:G
g|dcB AGA dBg|dcB AGA B2g|dcB AGA BGg|dcB AGA G2d|
gfg agf edB|gfg afd g2d|gfg agf efg|dgB AGA B2g |
dcB AGA dBg|dcB AGA B2g|dcB AGA dBg|fed def g2|]


